!!!COM: Hindemith, Paul
!!!OTL: String Quartet Op. 32
!!!OMV: I: Lebhafte Halbe (Lively in Half Time)
!!!example: 620
!!!work: Hin-19
**kern	**dynam	**kern	**dynam	**kern	**dynam	**kern	**dynam
*part4	*part4	*part3	*part3	*part2	*part2	*part1	*part1
*staff4	*	*staff3	*	*staff2	*	*staff1	*
*I"Violoncello	*	*I"Viola	*	*I"Violin II	*	*I"Violin I	*
*I'Vc.	*	*I'Vla.	*	*I'Vln. II	*	*I'Vln. I	*
*clefF4	*	*clefC3	*	*clefG2	*	*clefG2	*
*k[]	*	*k[]	*	*k[]	*	*k[]	*
*C:	*	*C:	*	*C:	*	*C:	*
*M11/4	*	*M11/4	*	*M11/4	*	*M11/4	*
*MM121	*	*MM121	*	*MM121	*	*MM121	*
=184	=184	=184	=184	=184	=184	=184	=184
4%11r	.	4%11r	.	(12bbL	.	(8aaaL	.
.	.	.	.	12ccc#X	.	.	.
.	.	.	.	.	.	8ggg)	.
.	.	.	.	12aa)	.	.	.
.	.	.	.	(8bb	.	(8ddd	.
.	.	.	.	8gg)	.	8eee)	.
.	.	.	.	(8aa	.	(12fff#X	.
.	.	.	.	.	.	12eee	.
.	.	.	.	8eeJ)	.	.	.
.	.	.	.	.	.	12gggJ)	.
.	.	.	.	(8gg#XL	.	(12fff#L	.
.	.	.	.	.	.	12eee	.
.	.	.	.	8bb)	.	.	.
.	.	.	.	.	.	12ddd)	.
.	.	.	.	(12aa	.	(8ccc	.
.	.	.	.	12ff#X	.	.	.
.	.	.	.	.	.	8eee-X)	.
.	.	.	.	12ee)	.	.	.
.	.	.	.	(8aa	.	(8ddd	.
.	.	.	.	8bbJ)	.	8cccJ)	.
.	.	.	.	(8eeL	.	(12eee-XL	.
.	.	.	.	.	.	12ddd	.
.	.	.	.	8ggn)	.	.	.
.	.	.	.	.	.	12ccc)	.
.	.	.	.	(12aa	.	(8eee-	.
.	.	.	.	12bb	.	.	.
.	.	.	.	.	.	8ddd)	.
.	.	.	.	12ee)	.	.	.
.	.	.	.	(8gg	.	(12ccc	.
.	.	.	.	.	.	12eee-X	.
.	.	.	.	8aaJ)	.	.	.
.	.	.	.	.	.	12dddJ)	.
.	.	.	.	(12bbL	.	(8cccL	.
.	.	.	.	12ee	.	.	.
.	.	.	.	.	.	8eee-X)	.
.	.	.	.	12gg)	.	.	.
.	.	.	.	(8aa	.	(12ddd	.
.	.	.	.	.	.	12ccc	.
.	.	.	.	8bbJ)	.	.	.
.	.	.	.	.	.	12eee-XJ)	.
=185	=185	=185	=185	=185	=185	=185	=185
*M4/4	*	*M4/4	*	*M4/4	*	*M4/4	*
2r	.	2r	.	(12eeL	.	(8dddL	.
.	.	.	.	12gg	.	.	.
.	.	.	.	.	.	8cccJ)	.
.	.	.	.	12aaJ)	.	.	.
.	.	.	.	(8bbL	.	(12eee-XL	.
.	.	.	.	.	.	12ddd	.
.	.	.	.	8eeJ)	.	.	.
.	.	.	.	.	.	12cccJ)	.
4r	.	4r	.	(12ggL	.	(8bbL	.
.	.	.	.	12aa	.	.	.
.	.	.	.	.	.	8ddd)	.
.	.	.	.	12bb-XJ)	.	.	.
4D	ff	4d	ff	(12aaL	.	(8ccc#X	.
.	.	.	.	12gg#X	.	.	.
.	.	.	.	.	.	8bbJ)	.
.	.	.	.	12eeJ)	.	.	.
=186	=186	=186	=186	=186	=186	=186	=186
4E	.	4e	.	(8ggnL	.	(8cccnL	.
.	.	.	.	8ff)	.	8dddJ)	.
4F	.	4f	.	(8bb-X	.	(12eee-XL	.
.	.	.	.	.	.	12ddd	.
.	.	.	.	8aaJ)	.	.	.
.	.	.	.	.	.	12cccJ)	.
4DD'^ 4BB-X	.	4D'^ 4B-X	.	(12ggL	.	(8bbL	.
.	.	.	.	12aa	.	.	.
.	.	.	.	.	.	8ddd)	.
.	.	.	.	12bb-XJ)	.	.	.
4r	.	4r	.	(12aaL	.	(8ccc#X	.
.	.	.	.	12gg#X	.	.	.
.	.	.	.	.	.	8bbJ)	.
.	.	.	.	12eeJ)	.	.	.
=187	=187	=187	=187	=187	=187	=187	=187
1r	.	1r	.	(8ggnL	.	(8cccnL	.
.	.	.	.	8ff)	.	8dddJ)	.
.	.	.	.	(8bb-X	.	(12eee-XL	.
.	.	.	.	.	.	12ddd	.
.	.	.	.	8aaJ)	.	.	.
.	.	.	.	.	.	12cccJ)	.
.	.	.	.	(12ggL	.	(8bbL	.
.	.	.	.	12aa	.	.	.
.	.	.	.	.	.	8ddd)	.
.	.	.	.	12bb-XJ)	.	.	.
.	.	.	.	(12aaL	.	(8ccc#X	.
.	.	.	.	12gg#X	.	.	.
.	.	.	.	.	.	8bbJ)	.
.	.	.	.	12eeJ)	.	.	.
=188	=188	=188	=188	=188	=188	=188	=188
4r	.	4r	.	(8ggnL	.	(8cccnL	.
.	.	.	.	8ff)	.	8dddJ)	.
4D	.	4d	.	(8bb-X	.	(12eee-XL	.
.	.	.	.	.	.	12ddd	.
.	.	.	.	8aaJ)	.	.	.
.	.	.	.	.	.	12cccJ)	.
4E	.	4e	.	(8aa-XL	.	(8bbL	.
.	.	.	.	8bb-)	.	8eeJ)	.
4F	.	4f	.	(8ff	.	(12aaL	.
.	.	.	.	.	.	12gg	.
.	.	.	.	8aa-XJ)	.	.	.
.	.	.	.	.	.	12ff#XJ)	.
=189	=189	=189	=189	=189	=189	=189	=189
4CC'^ 4AA-X	.	4D'^ 4B-X	.	(8ggL	.	(8eeL	.
.	.	.	.	8ee-X)	.	8gg#X)	.
4r	.	4r	.	(8aa-X	.	(8bb	.
.	.	.	.	8bb-XJ)	.	8eeJ)	.
2r	.	2r	.	(8ffL	.	(12aaL	.
.	.	.	.	.	.	12gg#X	.
.	.	.	.	8aa-)	.	.	.
.	.	.	.	.	.	12ff#XJ)	.
.	.	.	.	(8gg	.	(8eeL	.
.	.	.	.	8ee-J)	.	8gg#XJ)	.
=190	=190	=190	=190	=190	=190	=190	=190
2r	.	2r	.	(8aa-XL	.	(8bbL	.
.	.	.	.	8bb-X)	.	8eeJ)	.
.	.	.	.	(8ff	.	(12aaL	.
.	.	.	.	.	.	12gg	.
.	.	.	.	8aa-J)	.	.	.
.	.	.	.	.	.	12ff#XJ)	.
4r	.	4r	.	(8ggL	.	(8eeL	.
.	.	.	.	8ee-X)	.	8gg#X)	.
4D	.	4d	.	(8aa-	.	(8bb	.
.	.	.	.	8bb-J)	.	8eeJ)	.
=191	=191	=191	=191	=191	=191	=191	=191
4E	.	4e	.	(8ffL	.	(12aaL	.
.	.	.	.	.	.	12gg	.
.	.	.	.	8aa-X)	.	.	.
.	.	.	.	.	.	12ff#XJ)	.
4F	.	4f	.	(8gg	.	(8eeL	.
.	.	.	.	8ee-XJ)	.	8gg#XJ)	.
4CC'^ 4AA-X	.	4D'^ 4B-X	.	(8aa-L	.	(8bbL	.
.	.	.	.	8bb-X)	.	8eeJ)	.
4r	.	4r	.	(8ff	.	(12aaL	.
.	.	.	.	.	.	12ggn	.
.	.	.	.	8aa-J)	.	.	.
.	.	.	.	.	.	12ff#J)	.
=192	=192	=192	=192	=192	=192	=192	=192
4r	.	4r	.	(8ggL	.	(8eeL	.
.	.	.	.	8ee-X)	.	8gg#XJ)	.
4D	.	4d	.	(8ff	.	(12aaL	.
.	.	.	.	.	.	12ggn	.
.	.	.	.	8aa-XJ)	.	.	.
.	.	.	.	.	.	12ff#XJ)	.
4E	.	4e	.	(8ggL	.	(8eeL	.
.	.	.	.	8ee-)	.	8gg#XJ)	.
4F	.	4f	.	(8ff	.	(12aaL	.
.	.	.	.	.	.	12ggn	.
.	.	.	.	8aa-J)	.	.	.
.	.	.	.	.	.	12ff#J)	.
=193	=193	=193	=193	=193	=193	=193	=193
4CC'^ 4AA-X	.	4D'^ 4B-X	.	(8ggL	.	(8eeL	.
.	.	.	.	8ee-X)	.	8gg#XJ)	.
4r	.	4r	.	(8ff	.	(12aaL	.
.	.	.	.	.	.	12ggn	.
.	.	.	.	8aa-XJ)	.	.	.
.	.	.	.	.	.	12ff#XJ)	.
4D	.	4d	.	(8ggL	.	(8eeL	.
.	.	.	.	8ee-)	.	8gg#XJ)	.
4E	.	4e	.	(8ff	.	(12aaL	.
.	.	.	.	.	.	12ggn	.
.	.	.	.	8aa-J)	.	.	.
.	.	.	.	.	.	12ff#J)	.
=194	=194	=194	=194	=194	=194	=194	=194
4F	.	4f	.	(8ggL	.	(8eeL	.
.	.	.	.	8ee-X)	.	8gg#X)	.
4CC'^ 4AA-X	.	4D'^ 4B-X	.	(8ff	.	(8aa	.
.	.	.	.	8aJ)	.	8ff#XJ)	.
4r	.	4r	.	(8ggL	.	(8eeL	.
.	.	.	.	8ee-)	.	8gg#)	.
4D	.	4d	.	(8ff	.	(8aa	.
.	.	.	.	8aJ)	.	8ff#J)	.
=195	=195	=195	=195	=195	=195	=195	=195
*M6/4	*	*M6/4	*	*M6/4	*	*M6/4	*
4E	.	4e	.	(8ggL	.	(8eeL	.
.	.	.	.	8ee-X)	.	8gg#X)	.
4F	.	4f	.	(8ff	.	(8aa	.
.	.	.	.	8a)	.	8ff#X)	.
4CC'^ 4AA-X	.	4D'^ 4B-X	.	(8gg	.	(8ee	.
.	.	.	.	8ee-J)	.	8gg#J)	.
4D^	<	4d^	<	(8ffL	.	(8aaL	.
.	.	.	.	8a)	.	8ff#)	.
4E^	.	4e^	.	(8gg	.	(8ee	.
.	.	.	.	8ee-)	.	8gg#)	.
4F^	[[	4f^	[[	(8ff	.	(8aa	.
.	.	.	.	8aJ)	.	8ff#J)	.
=196	=196	=196	=196	=196	=196	=196	=196
*M4/4	*	*M4/4	*	*M4/4	*	*M4/4	*
2.CC^ 2.AA-X	.	2.D^ 2.B-X	.	(8gg#XL	.	(8eeL	.
.	.	.	.	8dd#X)	.	8bbJ)	.
.	.	.	.	(8cc#X	.	(12aaL	.
.	.	.	.	.	.	12gg	.
.	.	.	.	8aa#XJ)	.	.	.
.	.	.	.	.	.	12ff#XJ)	.
.	.	.	.	(8bbL	.	(8ggL	.
.	.	.	.	8ff#X)	.	8ddd)	.
8CC#XL	.	8C#XL	.	(8ee	.	(8ccc	.
8DD#XJ	.	8D#XJ	.	8ddd#XJ)	.	8bbJ)	.
=197	=197	=197	=197	=197	=197	=197	=197
4EE	.	4E	.	(8ccc#XL	.	(12aaL	.
.	.	.	.	.	.	12ddd	.
.	.	.	.	8aaJ)	.	.	.
.	.	.	.	.	.	12cccnJ)	.
8CC#XL	.	8C#XL	.	(12eeL	.	(8bbL	.
.	.	.	.	12ddd#X	.	.	.
8DD#XJ	.	8D#XJ	.	.	.	8aaJ)	.
.	.	.	.	12ccc#J)	.	.	.
4EE	.	4E	.	(8eeL	.	(12dddL	.
.	.	.	.	.	.	12ccc	.
.	.	.	.	8ddd#J)	.	.	.
.	.	.	.	.	.	12bbJ)	.
8CC#L	.	8C#L	.	(12ccc#L	.	(8aaL	.
.	.	.	.	12bb	.	.	.
8DD#J	.	8D#J	.	.	.	8eeeJ)	.
.	.	.	.	12aaJ)	.	.	.
=198	=198	=198	=198	=198	=198	=198	=198
*M6/4	*	*M6/4	*	*M6/4	*	*M6/4	*
4EE	.	4E	.	(8eeL	.	(12dddL	.
.	.	.	.	.	.	12ccc#X	.
.	.	.	.	8ddd#X)	.	.	.
.	.	.	.	.	.	12bb)	.
8FFL	.	8FL	.	(12bb	.	(8eee	.
.	.	.	.	12aa	.	.	.
8GG	.	8G	.	.	.	8ddd)	.
.	.	.	.	12ee)	.	.	.
8AA-X	.	8A-X	.	(8ddd#	.	(12ccc#	.
.	.	.	.	.	.	12bb	.
8GGJ	.	8GJ	.	8aaJ)	.	.	.
.	.	.	.	.	.	12eeeJ)	.
8FFL	.	8FL	.	(12eeL	.	(8dddL	.
.	.	.	.	12bb	.	.	.
8GGJ	.	8GJ	.	.	.	8ccc#)	.
.	.	.	.	12aa)	.	.	.
4AA-	.	4A-	.	(12ddd#	.	(8bb	.
.	.	.	.	12bb	.	.	.
.	.	.	.	.	.	8fff#X)	.
.	.	.	.	12aa)	.	.	.
4C-X^	.	4c-X^	.	(8bb	.	(8eee	.
.	.	.	.	8aaJ)	.	8fff#J)	.
=199	=199	=199	=199	=199	=199	=199	=199
*M4/4	*	*M4/4	*	*M4/4	*	*M4/4	*
(2DD-X^	.	(2D-X^	.	(12ccc#XL	.	(8eeeL	.
.	.	.	.	12bb	.	.	.
.	.	.	.	.	.	8aaa)	.
.	.	.	.	12dddnJ)	.	.	.
.	.	.	.	(12ccc#L	.	(8ggg	.
.	.	.	.	12bb	.	.	.
.	.	.	.	.	.	8aaaJ)	.
.	.	.	.	12eeeJ)	.	.	.
4GG-X)	.	4G-X)	.	(8bbL	.	(12gggL	.
.	.	.	.	.	.	12fff#X	.
.	.	.	.	8dddJ)	.	.	.
.	.	.	.	.	.	12eeeJ)	.
8C-XL	.	8c-XL	.	(12bbL	.	(8aaaL	.
.	.	.	.	12ccc#	.	.	.
8BB-XJ	.	8B-XJ	.	.	.	8gggJ)	.
.	.	.	.	12dddJ)	.	.	.
=200	=200	=200	=200	=200	=200	=200	=200
(2CCn^	.	(2C^	.	(12ccc#XL	.	(8fff#XL	.
.	.	.	.	12bb	.	.	.
.	.	.	.	.	.	8eeJ)	.
.	.	.	.	12aaJ)	.	.	.
.	.	.	.	(8bbL	.	(12eeeL	.
.	.	.	.	.	.	12fff#	.
.	.	.	.	8eeJ)	.	.	.
.	.	.	.	.	.	12eeeJ)	.
4FF)	.	4F)	.	(12bbL	.	(8dddL	.
.	.	.	.	12aa	.	.	.
.	.	.	.	.	.	8eeJ)	.
.	.	.	.	12gg#XJ)	.	.	.
8BBnL	.	8BnL	.	(8aaL	.	(12eeeL	.
.	.	.	.	.	.	12fff#	.
8BBJ	.	8BJ	.	8eeJ)	.	.	.
.	.	.	.	.	.	12eeeJ)	.
=201	=201	=201	=201	=201	=201	=201	=201
4EE	.	4E	.	(12aaL	.	(8dddL	.
.	.	.	.	12gg#X	.	.	.
.	.	.	.	.	.	8eeJ)	.
.	.	.	.	12ff#XJ)	.	.	.
8AAL	.	8AL	.	(8gg#L	.	(12ccc#XL	.
.	.	.	.	.	.	12ddd	.
8AAJ	.	8AJ	.	8eeJ)	.	.	.
.	.	.	.	.	.	12ccc#J)	.
4DD	.	4D	.	(12gg#L	.	(8bbL	.
.	.	.	.	12aa	.	.	.
.	.	.	.	.	.	8ee)	.
.	.	.	.	12gg#J)	.	.	.
8EEL	.	8EL	.	(12ff#L	.	(8aa	.
.	.	.	.	12gg#	.	.	.
8FF#XJ	.	8F#XJ	.	.	.	8eeJ)	.
.	.	.	.	12ff#J)	.	.	.
=202	=202	=202	=202	=202	=202	=202	=202
8GGL	.	8GL	.	(8eeL	.	(12bbL	.
.	.	.	.	.	.	12ccc#X	.
8FF#X	.	8F#X	.	8cc#X)	.	.	.
.	.	.	.	.	.	12bbJ)	.
8GG	.	8G	.	(8b	.	(8aaL	.
8AAJ	.	8AJ	.	8ddJ)	.	8eeJ)	.
4BB-X	.	4B-X	.	(8gL	.	(8ggL	.
.	.	.	.	8b)	.	8dd)	.
8E-XL	.	8e-XL	.	(8g	.	(8ffn	.
8DJ	.	8dJ	.	8aJ)	.	8ccJ)	.
=203	=203	=203	=203	=203	=203	=203	=203
[2EEnt	.	[2Ent	.	(8fL	.	(8ddL	.
.	.	.	.	8g)	.	8aJ)	.
.	.	.	.	(8e	>	4ee^	>
.	.	.	.	8fJ)	.	.	.
8EEL]	.	8EL]	.	(8dL	.	4ff^	.
8DD#X	.	8D#X	.	8e)	.	.	.
8EE	.	8E	.	(8c	.	4gg^	.
8FF#XJ	.	8F#XJ	.	8dJ)	.	.	.
=204	=204	=204	=204	=204	=204	=204	=204
4DD#X	.	4D#X	.	(8BL	.	2.bt	.
.	.	.	.	8c)	.	.	.
4r	.	4r	.	(8A	.	.	.
.	.	.	.	8BJ)	.	.	.
2r	.	[2d-X	p	(8GL	.	.	.
.	.	.	.	8AJ)	.	.	.
.	.	.	.	8G	] p	8gL	] mp
.	.	.	.	8r	.	8aJ	.
=205	=205	=205	=205	=205	=205	=205	=205
1BB-X	p	2.d-]	.	1r	.	4b-X	.
.	.	.	.	.	.	8gL	.
.	.	.	.	.	.	8aJ	.
.	.	.	.	.	.	4b-	.
.	.	12cL	.	.	.	8gL	.
.	.	12d-X	.	.	.	.	.
.	.	.	.	.	.	8aJ	.
.	.	12cJ	.	.	.	.	.
=206	=206	=206	=206	=206	=206	=206	=206
(2.C	.	4.G	.	1r	.	4b-X	.
.	.	.	.	.	.	8bnL	.
.	.	8A	.	.	.	8cc#XJ	.
.	.	[2B-X	.	.	.	8ddL	.
.	.	.	.	.	.	8cc#	.
4D)	.	.	.	.	.	8b	.
.	.	.	.	.	.	8cc#J	.
=207	=207	=207	=207	=207	=207	=207	=207
[1E-X	.	4B-]	.	2r	.	4dd	.
.	.	4A	.	.	.	4ffn	.
.	.	4c	.	4r	.	2f#X	.
.	.	4B-X	.	8aa'L	pp	.	.
.	.	.	.	8aa'J	.	.	.
=208	=208	=208	=208	=208	=208	=208	=208
*M6/4	*	*M6/4	*	*M6/4	*	*M6/4	*
2E-]	.	1.r	.	4dd'	.	4b	.
.	.	.	.	4r	.	8ddL	.
.	.	.	.	.	.	8cc#XJ	.
(2F	.	.	.	4r	.	(2d#X	.
.	.	.	.	8ff#X'L	.	.	.
.	.	.	.	8ff#'J	.	.	.
2G-X)	.	.	.	4b'	.	4g#X)	.
.	.	.	.	4r	.	8ccnL	.
.	.	.	.	.	.	8ccJ	.
=209	=209	=209	=209	=209	=209	=209	=209
*M4/4	*	*M4/4	*	*M4/4	*	*M4/4	*
[1AA-X^	.	1r	.	1r	.	4f	.
.	.	.	.	.	.	8b-XL	.
.	.	.	.	.	.	8b-J	.
.	.	.	.	.	.	4e-X	.
.	.	.	.	.	.	8fL	.
.	.	.	.	.	.	8gJ	.
=210	=210	=210	=210	=210	=210	=210	=210
(2AA-]	.	(4.F	.	1r	.	8a-XL	.
.	.	.	.	.	.	8g	.
.	.	.	.	.	.	8a-	.
.	.	8G	.	.	.	8b-XJ	.
2GG-X)	.	[2A-X	.	.	.	4bn	.
.	.	.	.	.	.	8eeL	.
.	.	.	.	.	.	8ee-XJ	.
=211	=211	=211	=211	=211	=211	=211	=211
[1FF-X	.	2A-])	.	4r	.	[2fT	.
.	.	.	.	8ccc#X'L	.	.	.
.	.	.	.	8ccc#'J	.	.	.
.	.	(4.B-X	.	4ff#X'	.	8fL]	.
.	.	.	.	.	.	8en	.
.	.	.	.	4r	.	8f	.
.	.	8c-X)	.	.	.	8gJ	.
=212	=212	=212	=212	=212	=212	=212	=212
*M6/4	*	*M6/4	*	*M6/4	*	*M6/4	*
2FF-]	.	(2C	.	4r	.	8aL	.
.	.	.	.	.	.	8b	.
.	.	.	.	8eee'L	.	8cc#X	.
.	.	.	.	8eee'J	.	8dd	.
(2EE-X	.	2.F	.	4aa'	.	8ee-X	.
.	.	.	.	.	.	8ddJ	.
.	.	.	.	2.r	.	8ee-L	.
.	.	.	.	.	.	8ff	.
2DD-X	.	.	.	.	.	8ff#X	.
.	.	.	.	.	.	8gg#XJ	.
.	.	4G)	.	.	.	4aa^	mp
=213	=213	=213	=213	=213	=213	=213	=213
*M4/4	*	*M4/4	*	*M4/4	*	*M4/4	*
4CC)	.	4E	.	8r	.	4ggn^	.
.	.	.	.	(8g	p	.	.
4r	.	4c#X^	mf	8aL	.	4ff#X^	.
.	.	.	.	8bJ	.	.	.
4r	.	4d^	.	8ccL	.	[2ddd	.
.	.	.	.	8b	.	.	.
8G'L	p	4e^	.	8cc	.	.	.
8G'J	.	.	.	8ddJ	.	.	.
=214	=214	=214	=214	=214	=214	=214	=214
4BB'	.	2.G#X	.	8eeL	.	4ddd]	.
.	.	.	.	8dd	.	.	.
8D'L	.	.	.	8cc	.	8fff#XL	.
8D'J	.	.	.	8bJ	.	8eeeJ	.
4EE'	.	.	.	8ccL	.	4ddd	.
.	.	.	.	8e	.	.	.
4r	.	8EL	.	8a	.	8fff#L	.
.	.	8F#XJ	.	8gJ)	.	8eeeJ	.
=	=	=	=	=	=	=	=
*-	*-	*-	*-	*-	*-	*-	*-
!!!system-decoration: [(s1,s2,s3,s4)]
!!!CDT: 1895/11/16-1963/12/28
!!!CBL: Hanau, Germany
!!!CDL: Frankfurt, Germany
!!!CNT: German
!!!AGN: Instrumental; Chamber
!!!MCN:
!!!MDT: 1923/11/05
!!!MGN: Quatuor Amar
!!!MLC: Vienna, Austria
!!!MPD: 1923
!!!MPN: Amar, Licco; Caspar, Walter; Frank, Maurits; Hindemith, Paul
!!!ODT: 1923
!!!PDT: 1924
!!!excerpt-start-measure: 184
!!!excerpt-end-measure: 211
!!!excerpt-start-time: 4:13
!!!excerpt-end-time: 5:06
!!!EEV: 2020/01/22
!!!ONB: Converted from MusicXML on 2020/01/22
